X: 40164
T: Tim O'Leary's
R: mazurka
M: 3/4
K: Gmajor
G2GD GB|d4 ga|ba g2 f2|g3 f gd|
e2 cd ef|g3f ge|dc B2 c2|AD FA (3cBA|
G2GD GB|d4 ga|ba g2 f2|g2 z2 d2|
e2 cd eg|d2 c2 A2|AG FG AD|1 G3 B (3cBA:|2 G3 a ag||
f2 dA df|a2 f2 d2|B3 d ga|b2 g2 d2|
e2 g2 zc'|b2 g2 d2|a2 f2 d2|d4 cB|
c3c eg|B3B dg|A2 f2 A2|F2 D4|
EC EF G2|FD FG A2|A2 G2 F2|1 G3 a ag:|2 G3 B BA||"LAST" G6||

